X:141
T:Come Along and Keep Your Promise
R:Strathspey
B:The Athole Collection
M:C
L:1/8
K:E_
e|B<G G>F E/F/G/A/ B>G|B<G G>F GF E/F/G/A/ B>F|
G<c e>c d>^B c2|B<G G>F E/F/G/A/ B<G|B<G G>F G<B c2|
B<G G>F E/F/G/A/ B>A|G>FE>g f>d c||g|e>g f<d g<c B<G|e<gf<d b<d c2|
e>g f<d g<c B<G|B<G G>F G>=B c2|e>g f<d g<c B>G|e<gf<d b<d c2|
gcB>A|G>F E<g f>d c2||
